Origami/32x32/apps/upwork.svg

<svg width="32" height="32" version="1.1" viewBox="0 0 32 32" xmlns="http://www.w3.org/2000/svg">
 <rect transform="matrix(0,-1,-1,0,0,0)" x="-31" y="-30" width="28" height="28" rx="2.1" ry="2.1" style="opacity:.2"/>
 <rect transform="matrix(0,-1,-1,0,0,0)" x="-30" y="-30" width="28" height="28" rx="2.1" ry="2.1" style="fill:#7cca3e"/>
 <path d="m6 11v7.400391c6.13e-5 0.127867 0.01647 0.255201 0.048828 0.378906 0 0 0.2233259 0.853813 0.8867188 1.638672 0.663393 0.784859 1.9108818 1.582031 3.5644532 1.582031 1.653571 0 2.90106-0.797172 3.564453-1.582031s0.886719-1.638672 0.886719-1.638672c0.03236-0.123705 0.04877-0.251039 0.04883-0.378906v-2.749428c0.390672 0.444737 0.361003 0.465102 0.804688 0.9375 0.285775 0.30427 0.609172 0.558664 0.908203 0.859375-0.0057 0.02842-0.01582 0.05556-0.02148 0.08398-0.675523 3.390833-0.691413 7.732468-0.691413 8.468182h3c0-0.49408 0.21437-2.984858 0.470703-5.193359 0.828698 0.621889 1.654794 1.147636 2.769531 1.191406 1.721164 0.06758 3.242643-0.58494 4.246094-1.636719 1.003451-1.051778 1.513672-2.447289 1.513672-3.861328 0-3.004762-2.495238-5.5-5.5-5.5-3.571066 0.043228-3.85357 2.483547-4.792969 3.201744-1.257376-1.376508-2.275425-2.673019-2.707031-3.201744h-3s-2.82e-4 0.699788 0 1.5v5.601562c-0.01819 0.05403-0.04218 0.162712-0.226562 0.38086-0.224108 0.265141-0.477009 0.517578-1.273438 0.517578-0.7964286 0-1.0493304-0.252437-1.2734375-0.517578-0.1843866-0.218148-0.2083689-0.326832-0.2265625-0.38086v-7.101562zm16.5 3c1.195238 0 2.5 1.304762 2.5 2.5 0 0.685961-0.254804 1.341575-0.683594 1.791016s-1.007158 0.748234-1.957031 0.710937c0.04702 0.0018-0.774232-0.291684-1.628906-0.970703-0.179881-0.142911-0.386984-0.381922-0.576172-0.546875 0.24864-0.820954 0.454388-1.755762 0.78125-2.296875 0.545047-0.902315 0.9568-1.1875 1.564453-1.1875z" style="fill-rule:evenodd;opacity:.2"/>
 <path d="m6 10v7.400391c6.13e-5 0.127867 0.01647 0.255201 0.048828 0.378906 0 0 0.2233259 0.853813 0.8867188 1.638672 0.663393 0.784859 1.9108818 1.582031 3.5644532 1.582031 1.653571 0 2.90106-0.797172 3.564453-1.582031s0.886719-1.638672 0.886719-1.638672c0.03236-0.123705 0.04877-0.251039 0.04883-0.378906v-2.749428c0.390672 0.444737 0.361003 0.465102 0.804688 0.9375 0.285775 0.30427 0.609172 0.558664 0.908203 0.859375-0.0057 0.02842-0.01582 0.05556-0.02148 0.08398-0.675523 3.390833-0.691413 7.732468-0.691413 8.468182h3c0-0.49408 0.21437-2.984858 0.470703-5.193359 0.828698 0.621889 1.654794 1.147636 2.769531 1.191406 1.721164 0.06758 3.242643-0.58494 4.246094-1.636719 1.003451-1.051778 1.513672-2.447289 1.513672-3.861328 0-3.004762-2.495238-5.5-5.5-5.5-3.571066 0.043228-3.85357 2.483547-4.792969 3.201744-1.257376-1.376508-2.275425-2.673019-2.707031-3.201744h-3s-2.82e-4 0.699788 0 1.5v5.601562c-0.01819 0.05403-0.04218 0.162712-0.226562 0.38086-0.224108 0.265141-0.477009 0.517578-1.273438 0.517578-0.7964286 0-1.0493304-0.252437-1.2734375-0.517578-0.1843866-0.218148-0.2083689-0.326832-0.2265625-0.38086v-7.101562zm16.5 3c1.195238 0 2.5 1.304762 2.5 2.5 0 0.685961-0.254804 1.341575-0.683594 1.791016s-1.007158 0.748234-1.957031 0.710937c0.04702 0.0018-0.774232-0.291684-1.628906-0.970703-0.179881-0.142911-0.386984-0.381922-0.576172-0.546875 0.24864-0.820954 0.454388-1.755762 0.78125-2.296875 0.545047-0.902315 0.9568-1.1875 1.564453-1.1875z" style="fill-rule:evenodd;fill:#ffffff"/>
 <path d="M 4.0996094 2 C 2.9362094 2 2 2.9362094 2 4.0996094 L 2 5.0996094 C 2 3.9362094 2.9362094 3 4.0996094 3 L 27.900391 3 C 29.063791 3 30 3.9362094 30 5.0996094 L 30 4.0996094 C 30 2.9362094 29.063791 2 27.900391 2 L 4.0996094 2 z" style="fill:#ffffff;opacity:.2"/>
</svg>

<svg xmlns="http://www.w3.org/2000/svg" width="32" height="32" version="1.1" viewBox="0 0 32 32">
 <rect style="opacity:0.2" width="28" height="28" x="-31" y="-30" rx="2.1" ry="2.1" transform="matrix(0,-1,-1,0,0,0)"/>
 <rect style="fill:#7cca3e" width="28" height="28" x="-30" y="-30" rx="2.1" ry="2.1" transform="matrix(0,-1,-1,0,0,0)"/>
 <path style="opacity:0.2;fill-rule:evenodd" d="m 6,11 0,7.400391 c 6.13e-5,0.127867 0.01647,0.255201 0.048828,0.378906 0,0 0.2233259,0.853813 0.8867188,1.638672 C 7.5989398,21.202828 8.8464286,22 10.5,22 c 1.653571,0 2.90106,-0.797172 3.564453,-1.582031 0.663393,-0.784859 0.886719,-1.638672 0.886719,-1.638672 0.03236,-0.123705 0.04877,-0.251039 0.04883,-0.378906 l 0,-2.749428 c 0.390672,0.444737 0.361003,0.465102 0.804688,0.9375 0.285775,0.30427 0.609172,0.558664 0.908203,0.859375 -0.0057,0.02842 -0.01582,0.05556 -0.02148,0.08398 C 16.01589,20.922651 16,25.264286 16,26 l 3,0 c 0,-0.49408 0.21437,-2.984858 0.470703,-5.193359 0.828698,0.621889 1.654794,1.147636 2.769531,1.191406 1.721164,0.06758 3.242643,-0.58494 4.246094,-1.636719 C 27.489779,19.30955 28,17.914039 28,16.5 28,13.495238 25.504762,11 22.5,11 18.928934,11.043228 18.64643,13.483547 17.707031,14.201744 16.449655,12.825236 15.431606,11.528725 15,11 l -3,0 c 0,0 -2.82e-4,0.699788 0,1.5 l 0,5.601562 c -0.01819,0.05403 -0.04218,0.162712 -0.226562,0.38086 C 11.54933,18.747563 11.296429,19 10.5,19 9.7035714,19 9.4506696,18.747563 9.2265625,18.482422 9.0421759,18.264274 9.0181936,18.15559 9,18.101562 L 9,11 Z m 16.5,3 c 1.195238,0 2.5,1.304762 2.5,2.5 0,0.685961 -0.254804,1.341575 -0.683594,1.791016 -0.42879,0.449441 -1.007158,0.748234 -1.957031,0.710937 0.04702,0.0018 -0.774232,-0.291684 -1.628906,-0.970703 -0.179881,-0.142911 -0.386984,-0.381922 -0.576172,-0.546875 0.24864,-0.820954 0.454388,-1.755762 0.78125,-2.296875 C 21.480594,14.285185 21.892347,14 22.5,14 Z"/>
 <path style="fill:#ffffff;fill-rule:evenodd" d="m 6,10 0,7.400391 c 6.13e-5,0.127867 0.01647,0.255201 0.048828,0.378906 0,0 0.2233259,0.853813 0.8867188,1.638672 C 7.5989398,20.202828 8.8464286,21 10.5,21 c 1.653571,0 2.90106,-0.797172 3.564453,-1.582031 0.663393,-0.784859 0.886719,-1.638672 0.886719,-1.638672 0.03236,-0.123705 0.04877,-0.251039 0.04883,-0.378906 l 0,-2.749428 c 0.390672,0.444737 0.361003,0.465102 0.804688,0.9375 0.285775,0.30427 0.609172,0.558664 0.908203,0.859375 -0.0057,0.02842 -0.01582,0.05556 -0.02148,0.08398 C 16.01589,19.922651 16,24.264286 16,25 l 3,0 c 0,-0.49408 0.21437,-2.984858 0.470703,-5.193359 0.828698,0.621889 1.654794,1.147636 2.769531,1.191406 1.721164,0.06758 3.242643,-0.58494 4.246094,-1.636719 C 27.489779,18.30955 28,16.914039 28,15.5 28,12.495238 25.504762,10 22.5,10 18.928934,10.043228 18.64643,12.483547 17.707031,13.201744 16.449655,11.825236 15.431606,10.528725 15,10 l -3,0 c 0,0 -2.82e-4,0.699788 0,1.5 l 0,5.601562 c -0.01819,0.05403 -0.04218,0.162712 -0.226562,0.38086 C 11.54933,17.747563 11.296429,18 10.5,18 9.7035714,18 9.4506696,17.747563 9.2265625,17.482422 9.0421759,17.264274 9.0181936,17.15559 9,17.101562 L 9,10 Z m 16.5,3 c 1.195238,0 2.5,1.304762 2.5,2.5 0,0.685961 -0.254804,1.341575 -0.683594,1.791016 -0.42879,0.449441 -1.007158,0.748234 -1.957031,0.710937 0.04702,0.0018 -0.774232,-0.291684 -1.628906,-0.970703 -0.179881,-0.142911 -0.386984,-0.381922 -0.576172,-0.546875 0.24864,-0.820954 0.454388,-1.755762 0.78125,-2.296875 C 21.480594,13.285185 21.892347,13 22.5,13 Z"/>
 <path style="fill:#ffffff;opacity:0.2" d="M 4.0996094 2 C 2.9362094 2 2 2.9362094 2 4.0996094 L 2 5.0996094 C 2 3.9362094 2.9362094 3 4.0996094 3 L 27.900391 3 C 29.063791 3 30 3.9362094 30 5.0996094 L 30 4.0996094 C 30 2.9362094 29.063791 2 27.900391 2 L 4.0996094 2 z"/>
</svg>
